; generated by PrusaSlicer 2.4.0+win64 on 2022-01-04 at 18:42:15 UTC


;
;

;
;
; 

; external perimeters extrusion width = 0.45mm
; perimeters extrusion width = 0.45mm
; infill extrusion width = 0.45mm
; solid infill extrusion width = 0.45mm
; top infill extrusion width = 0.40mm
; first layer extrusion width = 0.42mm

M73 P0 R3
M201 X2500 Y2500 Z400 E5000 ; sets maximum accelerations, mm/sec^2
M203 X180 Y180 Z12 E80 ; sets maximum feedrates, mm/sec
M204 P1250 R1250 T2500 ; sets acceleration (P, T) and retract acceleration (R), mm/sec^2
M205 X8.00 Y8.00 Z2.00 E10.00 ; sets the jerk limits, mm/sec
M205 S0 T0 ; sets the minimum extruding and travel feed rate, mm/sec
M107
;TYPE:Custom
G90 ; use absolute coordinates
M83 ; extruder relative mode
M104 S170 ; set extruder temp for bed leveling
M140 S85 ; set bed temp
M109 R170 ; wait for bed leveling temp
M190 S85 ; wait for bed temp
M204 T1250 ; set travel acceleration
G28 ; home all without mesh bed level
G29 ; mesh bed leveling 
M204 T2500 ; restore travel acceleration
M104 S240 ; set extruder temp
G92 E0
G1 Y-2 X179 F2400
G1 Z3 F720
M109 S240 ; wait for extruder temp

; intro line
M73 P1 R3
G1 X170 F1000
M73 P2 R3
G1 Z0.2 F720
G1 X110 E8 F900
G1 X40 E10 F700
G92 E0

M221 S95 ; set flow
G21 ; set units to millimeters
G90 ; use absolute coordinates
M83 ; use relative distances for extrusion
M900 K0.2 ; Filament gcode
M107
;LAYER_CHANGE
;Z:0.2
;HEIGHT:0.2
;BEFORE_LAYER_CHANGE
G92 E0.0
;0.2


M73 P4 R3
G1 E-3.2 F2400
M73 P6 R3
G1 Z.2 F720
;AFTER_LAYER_CHANGE
;0.2
G1 Z.4
G1 X81.687 Y81.693 F9000
G1 Z.2 F720
G1 E3.2 F1500
M204 P800
;TYPE:Skirt/Brim
;WIDTH:0.42
G1 F1200
G1 X82.739 Y80.76 E.04408
G1 X83.754 Y80.045 E.03892
M73 P7 R3
G1 X85.631 Y79.09 E.06607
G1 X86.5 Y78.782 E.0289
G1 X87.812 Y78.453 E.04239
G1 X89.962 Y78.248 E.06774
G1 X91.312 Y78.32 E.04239
G1 X92.537 Y78.523 E.03892
G1 X93.377 Y78.742 E.02721
G1 X94.697 Y79.225 E.04408
G1 X95.807 Y79.78 E.03892
G1 X96.733 Y80.368 E.03438
G1 X97.664 Y81.088 E.03691
G1 X98.561 Y81.946 E.03892
G1 X99.462 Y83.025 E.04408
G1 X99.951 Y83.742 E.02721
G1 X100.908 Y85.619 E.06607
G1 X101.515 Y87.637 E.06607
G1 X101.7 Y88.864 E.03892
G1 X101.752 Y90.269 E.04408
G1 X101.7 Y91.136 E.02721
G1 X101.481 Y92.524 E.04408
G1 X100.846 Y94.533 E.06607
G1 X99.862 Y96.397 E.06607
G1 X99.028 Y97.528 E.04408
G1 X98.184 Y98.438 E.03892
G1 X97.497 Y99.052 E.0289
G1 X96.408 Y99.854 E.04239
G1 X94.545 Y100.84 E.06607
G1 X93.377 Y101.258 E.03892
G1 X92.392 Y101.505 E.03185
G1 X91.149 Y101.697 E.03944
G1 X89.909 Y101.753 E.03892
G1 X89.042 Y101.714 E.02721
G1 X87.65 Y101.515 E.04408
G1 X86.449 Y101.203 E.03892
M73 P8 R3
G1 X85.421 Y100.82 E.03438
G1 X84.36 Y100.311 E.03691
G1 X83.304 Y99.658 E.03892
G1 X82.61 Y99.137 E.02721
G1 X81.572 Y98.189 E.04408
G1 X80.245 Y96.553 E.06607
G1 X79.532 Y95.341 E.04408
G1 X79.027 Y94.207 E.03892
G1 X78.733 Y93.334 E.0289
G1 X78.423 Y92.018 E.04239
G1 X78.249 Y89.918 E.06607
G1 X78.453 Y87.82 E.06607
G1 X78.796 Y86.457 E.04408
G1 X79.232 Y85.295 E.03892
G1 X80.245 Y83.447 E.06607
G1 X80.849 Y82.631 E.03185
G1 X81.647 Y81.738 E.03756
M204 P1000
G1 X81.937 Y81.979 F9000
M204 P800
G1 F1200
G1 X82.965 Y81.062 E.0432
G1 X83.961 Y80.36 E.03821
G1 X85.78 Y79.436 E.06395
G1 X87.873 Y78.825 E.06839
G1 X89.957 Y78.625 E.06562
G1 X91.262 Y78.694 E.04098
G1 X92.464 Y78.893 E.03821
G1 X94.538 Y79.567 E.06839
G1 X95.628 Y80.113 E.03821
G1 X96.516 Y80.677 E.03296
G1 X97.412 Y81.368 E.03549
G1 X98.293 Y82.21 E.03821
G1 X99.551 Y83.816 E.06395
G1 X100.555 Y85.752 E.06839
G1 X100.949 Y86.905 E.03821
M73 P9 R3
G1 X101.171 Y87.85 E.03043
G1 X101.339 Y89.051 E.03802
G1 X101.375 Y90.269 E.03821
G1 X101.144 Y92.296 E.06395
G1 X100.501 Y94.38 E.06839
G1 X99.551 Y96.184 E.06395
G1 X98.834 Y97.17 E.03821
G1 X97.915 Y98.173 E.04266
G1 X96.21 Y99.533 E.06839
G1 X94.408 Y100.489 E.06395
G1 X93.26 Y100.9 E.03821
G1 X91.936 Y101.211 E.04266
G1 X89.903 Y101.376 E.06395
G1 X87.734 Y101.148 E.06839
G1 X86.554 Y100.841 E.03821
G1 X85.569 Y100.474 E.03296
G1 X84.549 Y99.984 E.03549
G1 X83.512 Y99.343 E.03821
G1 X81.848 Y97.933 E.06839
G1 X80.563 Y96.35 E.06395
G1 X79.872 Y95.177 E.04266
G1 X79.376 Y94.064 E.03821
G1 X78.796 Y91.961 E.06839
G1 X78.626 Y89.929 E.06395
G1 X78.822 Y87.899 E.06395
G1 X79.152 Y86.579 E.04266
G1 X79.581 Y85.438 E.03821
G1 X80.643 Y83.533 E.06839
G1 X81.898 Y82.025 E.06152
M204 P1000
; printing object zaslepka2.stl id:0 copy 0
M73 P10 R3
G1 E-2.24 F2400
;WIPE_START
G1 F7200
G1 X82.965 Y81.062 E-.45509
G1 X83.961 Y80.36 E-.38593
G1 X84.161 Y80.259 E-.07098
;WIPE_END
G1 E-.048 F2400
G1 Z.4 F720
G1 X84.441 Y83.96 F9000
G1 Z.2 F720
G1 E3.2 F1500
M204 P800
;TYPE:Perimeter
G1 F1200
G1 X84.88 Y83.58 E.01822
G1 X85.313 Y83.259 E.0169
G1 X85.685 Y83.014 E.01395
G1 X86.11 Y82.768 E.01541
G1 X86.55 Y82.548 E.01541
G1 X87.002 Y82.355 E.01541
G1 X87.464 Y82.189 E.01541
G1 X87.936 Y82.052 E.01541
G1 X88.415 Y81.942 E.01541
G1 X88.9 Y81.862 E.01541
G1 X89.387 Y81.811 E.01536
G1 X89.926 Y81.789 E.0169
G1 X90.37 Y81.796 E.01395
G1 X90.86 Y81.832 E.01541
G1 X91.347 Y81.898 E.01541
G1 X91.829 Y81.993 E.01541
G1 X92.305 Y82.117 E.01541
G1 X92.772 Y82.269 E.01541
G1 X93.23 Y82.448 E.01541
G1 X93.676 Y82.655 E.01541
G1 X94.108 Y82.888 E.01541
G1 X94.526 Y83.146 E.01541
G1 X94.928 Y83.429 E.01541
G1 X95.312 Y83.735 E.01541
G1 X95.677 Y84.064 E.01541
G1 X96.022 Y84.414 E.01541
G1 X96.346 Y84.784 E.01541
G1 X96.646 Y85.173 E.01541
G1 X96.923 Y85.579 E.01541
G1 X97.175 Y86.001 E.01541
G1 X97.401 Y86.437 E.01541
G1 X97.601 Y86.886 E.01541
G1 X97.774 Y87.346 E.01541
G1 X97.919 Y87.815 E.01541
G1 X98.035 Y88.292 E.01541
G1 X98.123 Y88.776 E.01541
G1 X98.182 Y89.264 E.01541
G1 X98.211 Y89.754 E.01541
G1 X98.211 Y90.244 E.01536
G1 X98.176 Y90.782 E.0169
G1 X98.123 Y91.224 E.01395
G1 X98.035 Y91.708 E.01541
G1 X97.919 Y92.185 E.01541
G1 X97.774 Y92.654 E.01541
G1 X97.601 Y93.114 E.01541
G1 X97.401 Y93.563 E.01541
G1 X97.175 Y93.999 E.01541
G1 X96.923 Y94.421 E.01541
G1 X96.646 Y94.827 E.0154
G1 X96.346 Y95.216 E.01541
G1 X96.022 Y95.586 E.01541
G1 X95.677 Y95.936 E.01541
G1 X95.312 Y96.265 E.01541
G1 X94.928 Y96.571 E.01541
G1 X94.526 Y96.854 E.01541
G1 X94.108 Y97.112 E.01541
G1 X93.676 Y97.345 E.01541
G1 X93.23 Y97.552 E.01541
G1 X92.772 Y97.731 E.01541
G1 X92.305 Y97.883 E.01541
G1 X91.829 Y98.007 E.01541
G1 X91.347 Y98.102 E.01541
G1 X90.86 Y98.168 E.01541
G1 X90.37 Y98.204 E.01541
G1 X89.879 Y98.212 E.01541
G1 X89.388 Y98.19 E.01541
G1 X88.9 Y98.138 E.01541
G1 X88.416 Y98.058 E.01536
G1 X87.891 Y97.935 E.0169
G1 X87.464 Y97.811 E.01395
G1 X87.003 Y97.645 E.01536
G1 X86.508 Y97.431 E.01691
M73 P11 R3
G1 X86.11 Y97.232 E.01395
G1 X85.685 Y96.986 E.01541
G1 X85.275 Y96.716 E.01541
G1 X84.882 Y96.421 E.01541
G1 X84.507 Y96.103 E.01541
G1 X84.152 Y95.764 E.01541
G1 X83.817 Y95.403 E.01541
G1 X83.505 Y95.024 E.01541
G1 X83.216 Y94.626 E.0154
G1 X82.952 Y94.212 E.01541
G1 X82.713 Y93.784 E.01536
G1 X82.482 Y93.297 E.0169
G1 X82.313 Y92.886 E.01395
G1 X82.154 Y92.421 E.01541
G1 X82.024 Y91.947 E.01541
G1 X81.922 Y91.468 E.01536
G1 X81.844 Y90.934 E.01691
G1 X81.804 Y90.491 E.01395
G1 X81.789 Y90.001 E.01536
G1 X81.808 Y89.463 E.0169
G1 X81.848 Y89.019 E.01395
G1 X81.921 Y88.534 E.01541
G1 X82.024 Y88.053 E.01541
G1 X82.154 Y87.579 E.01541
G1 X82.313 Y87.114 E.01541
G1 X82.499 Y86.66 E.01541
G1 X82.713 Y86.217 E.01541
G1 X82.952 Y85.788 E.01541
G1 X83.216 Y85.374 E.01541
G1 X83.505 Y84.976 E.01541
G1 X83.817 Y84.597 E.01541
G1 X84.397 Y84.001 E.02606
M204 P1000
G1 X83.883 Y83.972 F9000
M204 P800
;TYPE:External perimeter
G1 F1200
G1 X84.254 Y83.617 E.01611
G1 X84.646 Y83.285 E.0161
G1 X85.097 Y82.95 E.01761
G1 X85.487 Y82.693 E.01463
G1 X85.932 Y82.436 E.01611
G1 X86.391 Y82.206 E.01611
G1 X86.864 Y82.004 E.01611
G1 X87.348 Y81.831 E.01611
G1 X87.841 Y81.686 E.01611
G1 X88.342 Y81.572 E.01611
G1 X88.849 Y81.488 E.01612
G1 X89.36 Y81.434 E.0161
G1 X89.921 Y81.412 E.01761
G1 X90.387 Y81.419 E.01463
G1 X90.9 Y81.457 E.01611
G1 X91.409 Y81.526 E.01611
G1 X91.913 Y81.626 E.01611
G1 X92.411 Y81.755 E.01611
G1 X92.9 Y81.914 E.01611
G1 X93.378 Y82.101 E.01611
G1 X93.844 Y82.317 E.01611
G1 X94.297 Y82.561 E.01611
G1 X94.734 Y82.831 E.01612
G1 X95.154 Y83.127 E.01611
G1 X95.556 Y83.447 E.01611
G1 X95.938 Y83.791 E.01611
G1 X96.299 Y84.157 E.01611
G1 X96.637 Y84.544 E.01611
G1 X96.951 Y84.951 E.01611
G1 X97.241 Y85.376 E.01611
G1 X97.504 Y85.817 E.01611
G1 X97.741 Y86.273 E.01611
G1 X97.95 Y86.743 E.01611
G1 X98.131 Y87.224 E.01611
G1 X98.282 Y87.715 E.01611
G1 X98.404 Y88.214 E.01611
G1 X98.496 Y88.72 E.01612
G1 X98.557 Y89.23 E.01611
G1 X98.588 Y89.743 E.01611
G1 X98.588 Y90.256 E.0161
G1 X98.552 Y90.817 E.01761
G1 X98.496 Y91.28 E.01463
G1 X98.404 Y91.786 E.01611
G1 X98.282 Y92.285 E.01611
G1 X98.131 Y92.776 E.01611
G1 X97.95 Y93.257 E.01611
G1 X97.741 Y93.727 E.01611
G1 X97.504 Y94.183 E.01611
G1 X97.241 Y94.624 E.01612
G1 X96.951 Y95.049 E.01611
G1 X96.637 Y95.456 E.01611
G1 X96.299 Y95.843 E.01611
G1 X95.938 Y96.209 E.01611
G1 X95.556 Y96.553 E.01611
G1 X95.154 Y96.873 E.01611
G1 X94.734 Y97.169 E.01611
G1 X94.297 Y97.439 E.01611
G1 X93.844 Y97.683 E.01611
G1 X93.378 Y97.899 E.01611
M73 P12 R3
G1 X92.9 Y98.086 E.01611
G1 X92.411 Y98.245 E.01611
G1 X91.913 Y98.374 E.01611
G1 X91.409 Y98.474 E.01611
G1 X90.9 Y98.543 E.01611
G1 X90.387 Y98.581 E.01611
G1 X89.874 Y98.589 E.01611
G1 X89.36 Y98.566 E.01611
G1 X88.849 Y98.512 E.01611
G1 X88.343 Y98.428 E.0161
G1 X87.795 Y98.3 E.01761
G1 X87.348 Y98.169 E.01463
G1 X86.864 Y97.996 E.0161
G1 X86.349 Y97.773 E.01761
G1 X85.932 Y97.564 E.01463
G1 X85.486 Y97.307 E.01611
G1 X85.058 Y97.024 E.01611
G1 X84.646 Y96.716 E.01611
G1 X84.254 Y96.383 E.01611
G1 X83.883 Y96.028 E.01611
G1 X83.533 Y95.652 E.01611
G1 X83.207 Y95.255 E.01612
G1 X82.905 Y94.839 E.01611
G1 X82.628 Y94.406 E.01611
G1 X82.378 Y93.957 E.0161
G1 X82.137 Y93.45 E.01761
G1 X81.96 Y93.018 E.01463
G1 X81.794 Y92.532 E.01611
G1 X81.657 Y92.036 E.01612
G1 X81.55 Y91.534 E.0161
G1 X81.469 Y90.978 E.01761
G1 X81.428 Y90.514 E.01463
G1 X81.412 Y90.001 E.0161
G1 X81.432 Y89.439 E.01761
G1 X81.474 Y88.974 E.01463
G1 X81.55 Y88.466 E.01611
G1 X81.657 Y87.964 E.01611
G1 X81.794 Y87.468 E.01612
G1 X81.96 Y86.982 E.01611
G1 X82.155 Y86.506 E.01611
G1 X82.378 Y86.043 E.01612
G1 X82.628 Y85.594 E.01611
G1 X82.905 Y85.161 E.01611
G1 X83.207 Y84.745 E.01611
G1 X83.533 Y84.348 E.01611
G1 X83.842 Y84.016 E.01423
M204 P1000
G1 X84.27 Y84.072 F9000
G1 E-2.24 F2400
;WIPE_START
G1 F7200
G1 X84.254 Y83.617 E-.18171
G1 X84.646 Y83.285 E-.16258
G1 X85.097 Y82.95 E-.17788
G1 X85.487 Y82.693 E-.14776
G1 X85.932 Y82.436 E-.16274
G1 X86.156 Y82.324 E-.07933
;WIPE_END
G1 E-.048 F2400
G1 Z.4 F720
G1 X96.774 Y85.561 F9000
G1 Z.2 F720
G1 E3.2 F1500
M204 P800
;TYPE:Solid infill
;WIDTH:0.42046
G1 F1200
G1 X95.478 Y84.265 E.0575
G1 X95.129 Y83.951 E.01475
G1 X94.758 Y83.655 E.01489
G1 X94.37 Y83.382 E.01489
G1 X93.967 Y83.133 E.0149
G1 X93.631 Y82.952 E.01196
G1 X97.047 Y86.368 E.15164
G1 X97.339 Y86.993 E.02167
G1 X97.46 Y87.315 E.0108
G1 X92.683 Y82.537 E.21211
G1 X91.92 Y82.309 E.02497
M73 P13 R3
G1 X97.692 Y88.081 E.25625
G1 X97.831 Y88.754 E.02157
G1 X91.248 Y82.17 E.2923
G1 X90.643 Y82.1 E.0191
G1 X97.904 Y89.361 E.32235
G1 X97.928 Y89.919 E.01753
G1 X90.084 Y82.074 E.34826
G1 X89.562 Y82.087 E.01638
G1 X97.915 Y90.439 E.37082
M73 P14 R3
G1 X97.873 Y90.932 E.01551
G1 X89.07 Y82.128 E.39083
G1 X88.605 Y82.197 E.01475
G1 X97.804 Y91.396 E.4084
G1 X97.712 Y91.838 E.01417
G1 X88.164 Y82.29 E.42392
G1 X87.743 Y82.403 E.01368
M73 P15 R3
G1 X97.6 Y92.26 E.43761
G1 X97.469 Y92.663 E.0133
G1 X87.34 Y82.534 E.44966
G1 X86.955 Y82.683 E.01297
G1 X97.321 Y93.049 E.46021
G1 X97.156 Y93.418 E.0127
M73 P16 R3
G1 X86.585 Y82.847 E.46932
G1 X86.23 Y83.026 E.01248
G1 X96.975 Y93.771 E.47704
G1 X96.78 Y94.109 E.01227
G1 X85.891 Y83.221 E.4834
G1 X85.834 Y83.254 E.0021
M73 P17 R3
G1 X85.567 Y83.43 E.01003
G1 X96.571 Y94.435 E.48855
G1 X96.35 Y94.748 E.01203
G1 X85.256 Y83.654 E.49253
G1 X84.956 Y83.887 E.01194
G1 X96.117 Y95.048 E.4955
G1 X95.868 Y95.333 E.01188
M73 P18 R3
G1 X84.668 Y84.134 E.49721
G1 X84.395 Y84.395 E.01185
G1 X95.606 Y95.605 E.49771
G1 X95.333 Y95.866 E.01186
G1 X84.136 Y84.669 E.49709
G1 X83.888 Y84.956 E.01188
M73 P19 R3
G1 X95.047 Y96.114 E.49541
G1 X94.75 Y96.351 E.01193
G1 X83.653 Y85.254 E.49265
G1 X83.43 Y85.565 E.01201
G1 X94.436 Y96.571 E.48864
G1 X94.11 Y96.779 E.01214
M73 P20 R3
G1 X83.222 Y85.891 E.48339
G1 X83.028 Y86.231 E.01229
G1 X93.77 Y96.973 E.47689
G1 X93.417 Y97.153 E.01246
G1 X82.849 Y86.586 E.46916
G1 X82.684 Y86.955 E.01269
M73 P21 R3
G1 X93.048 Y97.319 E.46013
G1 X92.664 Y97.469 E.01294
G1 X82.535 Y87.34 E.4497
G1 X82.403 Y87.741 E.01328
G1 X92.261 Y97.6 E.43767
G1 X91.839 Y97.712 E.0137
M73 P22 R3
G1 X82.29 Y88.162 E.42398
G1 X82.197 Y88.603 E.01416
G1 X91.397 Y97.804 E.40845
G1 X90.932 Y97.872 E.01476
G1 X82.128 Y89.068 E.39088
G1 X82.088 Y89.562 E.01556
M73 P23 R3
G1 X90.441 Y97.915 E.37085
G1 X89.92 Y97.928 E.01636
G1 X82.075 Y90.083 E.34829
G1 X82.102 Y90.644 E.01763
G1 X89.36 Y97.902 E.32224
G1 X88.751 Y97.827 E.01927
G1 X82.176 Y91.252 E.29189
G1 X82.309 Y91.919 E.02136
M73 P23 R2
G1 X88.079 Y97.689 E.25615
M73 P24 R2
G1 X87.312 Y97.456 E.02517
G1 X82.545 Y92.688 E.21164
G1 X82.741 Y93.183 E.0167
G1 X82.954 Y93.632 E.0156
G1 X86.366 Y97.043 E.15147
G1 X85.834 Y96.746 E.01915
G1 X85.438 Y96.484 E.01489
G1 X85.058 Y96.2 E.01489
G1 X84.696 Y95.893 E.01489
G1 X84.358 Y95.569 E.01469
G1 X83.238 Y94.449 E.04973
M204 P1000
; stop printing object zaslepka2.stl id:0 copy 0
;LAYER_CHANGE
;Z:0.35
;HEIGHT:0.15
;BEFORE_LAYER_CHANGE
G92 E0.0
;0.35


G1 E-2.24 F2400
;WIPE_START
G1 F7200
G1 X84.358 Y95.569 E-.50161
G1 X84.696 Y95.893 E-.14823
G1 X85.058 Y96.2 E-.15024
G1 X85.341 Y96.412 E-.11192
;WIPE_END
G1 E-.048 F2400
G1 Z.4 F720
;AFTER_LAYER_CHANGE
;0.35
M104 S250 ; set temperature
M140 S90 ; set bed temperature
G1 X83.05 Y99.467 F9000
G1 Z.35 F720
G1 E3.2 F1500
;TYPE:Skirt/Brim
;WIDTH:0.42
G1 F2400
G1 X82.61 Y99.137 E.01331
G1 X81.572 Y98.189 E.034
G1 X80.245 Y96.553 E.05096
G1 X79.532 Y95.341 E.034
G1 X79.027 Y94.207 E.03002
G1 X78.733 Y93.334 E.02229
G1 X78.423 Y92.018 E.0327
G1 X78.249 Y89.918 E.05096
G1 X78.453 Y87.82 E.05096
G1 X78.796 Y86.457 E.034
G1 X79.232 Y85.295 E.03002
G1 X80.245 Y83.447 E.05096
G1 X80.849 Y82.631 E.02457
G1 X81.687 Y81.693 E.03042
G1 X82.739 Y80.76 E.034
G1 X83.754 Y80.045 E.03002
G1 X85.631 Y79.09 E.05096
G1 X86.5 Y78.782 E.02229
M73 P25 R2
G1 X87.812 Y78.453 E.0327
G1 X89.962 Y78.248 E.05225
G1 X91.312 Y78.32 E.0327
G1 X92.537 Y78.523 E.03002
G1 X93.377 Y78.742 E.02099
G1 X94.697 Y79.225 E.034
G1 X95.807 Y79.78 E.03002
G1 X96.733 Y80.368 E.02652
G1 X97.664 Y81.088 E.02847
G1 X98.561 Y81.946 E.03002
G1 X99.462 Y83.025 E.034
G1 X99.951 Y83.742 E.02099
G1 X100.908 Y85.619 E.05096
G1 X101.515 Y87.637 E.05096
G1 X101.7 Y88.864 E.03002
G1 X101.752 Y90.269 E.034
G1 X101.7 Y91.136 E.02099
G1 X101.481 Y92.524 E.034
G1 X100.846 Y94.533 E.05096
G1 X99.862 Y96.397 E.05096
G1 X99.028 Y97.528 E.034
G1 X98.184 Y98.438 E.03002
G1 X97.497 Y99.052 E.02229
G1 X96.408 Y99.854 E.0327
G1 X94.545 Y100.84 E.05096
G1 X93.377 Y101.258 E.03002
G1 X92.392 Y101.505 E.02457
G1 X91.149 Y101.697 E.03042
G1 X89.909 Y101.753 E.03002
G1 X89.042 Y101.714 E.02099
G1 X87.65 Y101.515 E.034
G1 X86.449 Y101.203 E.03002
G1 X85.421 Y100.82 E.02652
G1 X84.36 Y100.311 E.02847
G1 X83.304 Y99.658 E.03002
G1 X83.098 Y99.503 E.00623
G1 X83.35 Y99.206 F9000
G1 F2400
G1 X81.848 Y97.933 E.04762
G1 X80.563 Y96.35 E.04933
G1 X79.872 Y95.177 E.03291
G1 X79.376 Y94.064 E.02947
G1 X78.796 Y91.961 E.05275
G1 X78.626 Y89.929 E.04933
G1 X78.822 Y87.899 E.04933
G1 X79.152 Y86.579 E.03291
G1 X79.581 Y85.438 E.02947
G1 X80.643 Y83.533 E.05275
G1 X81.948 Y81.966 E.04933
G1 X82.965 Y81.062 E.03291
G1 X83.961 Y80.36 E.02948
G1 X85.78 Y79.436 E.04933
G1 X87.873 Y78.825 E.05275
G1 X89.957 Y78.625 E.05062
G1 X91.262 Y78.694 E.03161
G1 X92.464 Y78.893 E.02948
G1 X94.538 Y79.567 E.05275
G1 X95.628 Y80.113 E.02947
G1 X96.516 Y80.677 E.02543
G1 X97.412 Y81.368 E.02738
